dist/svgs/crypto-icons/icons/frk.svg

<?xml version="1.0" encoding="UTF-8" standalone="yes"?>
<svg xmlns="http://www.w3.org/2000/svg" xmlns:xlink="http://www.w3.org/1999/xlink" width="512px" height="512px" viewBox="0 0 384 384" version="1.1">
  <g id="surface1">
    <path style=" stroke:none;fill-rule:nonzero;fill:rgb(0%,0%,0%);fill-opacity:1;" d="M 156.519531 383.621094 L 156.519531 323.890625 L 202.886719 323.890625 L 202.886719 274.0625 L 156.519531 274.0625 L 156.519531 206.238281 L 299.082031 206.238281 L 299.082031 156.40625 L 156.519531 156.40625 L 156.519531 73.359375 L 348.21875 73.359375 L 348.21875 0 L 82.464844 0 L 82.464844 274.0625 L 35.40625 274.0625 L 35.40625 323.890625 L 82.464844 323.890625 L 82.464844 383.621094 Z M 156.519531 383.621094 "/>
  </g>
</svg>

<svg xmlns="http://www.w3.org/2000/svg" viewBox="0 0 384 384"><path d="M156.52 383.621v-59.73h46.367v-49.829H156.52v-67.824h142.562v-49.832H156.52V73.36h191.699V0H82.465v274.063H35.406v49.828h47.059v59.73zm0 0"/></svg>
